src/assets/duotone/Man.svg

<?xml version="1.0" encoding="UTF-8"?>
<svg width="24" height="24" viewBox="0 0 24 24" xmlns="http://www.w3.org/2000/svg">
 <path d="m18 13.75c0 4.28-3.47 7.75-7.75 7.75s-7.75-3.47-7.75-7.75 3.47-7.75 7.75-7.75c1.87 0 3.58 0.66 4.92 1.77h0.01c0.39 0.32 0.74 0.67 1.05 1.06 1.11 1.34 1.77 3.05 1.77 4.92z" opacity=".4"/>
 <path d="m22.25 2.5v6.5c0 0.41-0.34 0.75-0.75 0.75s-0.75-0.34-0.75-0.75v-4.69l-4.52 4.52c-0.31-0.39-0.66-0.74-1.05-1.06l4.51-4.52h-4.69c-0.41 0-0.75-0.34-0.75-0.75s0.34-0.75 0.75-0.75h6.5c0.1 0 0.19 0.02 0.29 0.06 0.18 0.07 0.33 0.22 0.4 0.4 0.04 0.1 0.06 0.19 0.06 0.29z"/>
</svg>

<svg width="24" height="24" viewBox="0 0 24 24"  xmlns="http://www.w3.org/2000/svg">
<path opacity="0.4" d="M18 13.75C18 18.03 14.53 21.5 10.25 21.5C5.97 21.5 2.5 18.03 2.5 13.75C2.5 9.47 5.97 6 10.25 6C12.12 6 13.83 6.66 15.17 7.77H15.18C15.57 8.09 15.92 8.44 16.23 8.83C17.34 10.17 18 11.88 18 13.75Z" />
<path d="M22.25 2.5V9C22.25 9.41 21.91 9.75 21.5 9.75C21.09 9.75 20.75 9.41 20.75 9V4.31L16.23 8.83C15.92 8.44 15.57 8.09 15.18 7.77L19.69 3.25H15C14.59 3.25 14.25 2.91 14.25 2.5C14.25 2.09 14.59 1.75 15 1.75H21.5C21.6 1.75 21.69 1.77 21.79 1.81C21.97 1.88 22.12 2.03 22.19 2.21C22.23 2.31 22.25 2.4 22.25 2.5Z" />
</svg>
